icons/info-24.svg

<svg xmlns="http://www.w3.org/2000/svg" width="24" height="24" viewBox="0 0 24 24">
  <defs/>
  <path d="M13,7.5 A1 1 0 1 1 11,7.5 A1 1 0 0 1 13,7.5 Z M10,11.25 A0.75 0.75 0 0 1 10.75,10.5 L12.25,10.5 A0.75 0.75 0 0 1 13,11.25 L13,15.5 L13.75,15.5 A0.75 0.75 0 0 1 13.75,17 L10.75,17 A0.75 0.75 0 0 1 10.75,15.5 L11.5,15.5 L11.5,12 L10.75,12 A0.75 0.75 0 0 1 10,11.25 Z"/>
  <path d="M12,1 C18.075,1 23,5.925 23,12 C23,18.075 18.075,23 12,23 C5.925,23 1,18.075 1,12 C1,5.925 5.925,1 12,1 Z M2.5,12 C2.5,17.247 6.753,21.5 12,21.5 C17.247,21.5 21.5,17.247 21.5,12 C21.5,6.753 17.247,2.5 12,2.5 C6.753,2.5 2.5,6.753 2.5,12 Z"/>
</svg>

<svg xmlns="http://www.w3.org/2000/svg" width="24" height="24" viewBox="0 0 24 24"><path d="M13 7.5a1 1 0 11-2 0 1 1 0 012 0zm-3 3.75a.75.75 0 01.75-.75h1.5a.75.75 0 01.75.75v4.25h.75a.75.75 0 010 1.5h-3a.75.75 0 010-1.5h.75V12h-.75a.75.75 0 01-.75-.75z"/><path d="M12 1c6.075 0 11 4.925 11 11s-4.925 11-11 11S1 18.075 1 12 5.925 1 12 1zM2.5 12a9.5 9.5 0 009.5 9.5 9.5 9.5 0 009.5-9.5A9.5 9.5 0 0012 2.5 9.5 9.5 0 002.5 12z"/></svg>
